X: 30
T:Reel De Montreal
% Nottingham Music Database
S:via PR
M:4/4
L:1/4
K:D
[dg]|"G"[gb][f/2a/2][e/2g/2] [d/2g/2][c/2e/2][B/2d/2][A/2c/2]|[G/2B/2][B/2d/2][D/2G/2][G/2B/2] [Bd][A/2c/2][G/2B/2]|"D"[F/2A/2][A/2d/2][D/2F/2][F/2A/2] [A/2d/2][c/2e/2][B/2d/2][A/2d/2]|\
"G"[G/2B/2][B/2d/2][D/2G/2][G/2B/2] [Bd][B/2d/2][d/2g/2]|
"G"[gb][f/2a/2][e/2g/2] [d/2g/2][c/2e/2][B/2d/2][A/2c/2]|"G"[G/2B/2][B/2d/2][D/2G/2][G/2B/2] [Bd][A/2c/2][G/2B/2]|"D7"[F/2A/2][G/2B/2][A/2=c/2][B/2d/2] [c/2e/2][d/2f/2][e/2g/2][f/2a/2]|\
"G"[gb][gb] [gb]:|
K:D
z|:"D"[Ad][F/2A/2][A/2d/2] [df][A/2d/2][d/2f/2]|[fa][d/2f/2][f/2a/2] [ad'][a/2d'/2][b/2d'/2]|"A"[ac'][gb] "A7"[eg][ga]|"D"[bd'][ad'] [fa][Ad]|
"D"[Ad][F/2A/2][A/2d/2] [df][A/2d/2][d/2f/2]|[fa][d/2f/2][f/2a/2] [ad'][a/2d'/2][b/2d'/2]|"G"[ac'][gb] "A7"[eg][ce]|"D"[d2f2] -[d2f2]:|



